material/.icons/material/gate-xnor.svg

<svg xmlns="http://www.w3.org/2000/svg" viewBox="0 0 24 24"><path d="M2 4c3 6 3 10 0 16h2c3-6 3-10 .1-16H2m4 0c3 6 3 10 0 16h3c3.2 0 5.8-3.2 7.7-6 .58.65 1.42 1 2.3 1a3 3 0 003-3 3 3 0 00-3-3c-.88 0-1.72.35-2.3 1-2-2.8-4.5-6-7.7-6H6m3 2c3 0 5 4 6.5 6C14 14 12 18 9 18c1.6-4 1.6-8 0-12m10 5c.5 0 1 .5 1 1s-.5 1-1 1a1 1 0 01-1-1c0-.5.5-1 1-1z"/></svg>

<?xml version="1.0" encoding="UTF-8"?><!DOCTYPE svg PUBLIC "-//W3C//DTD SVG 1.1//EN" "http://www.w3.org/Graphics/SVG/1.1/DTD/svg11.dtd"><svg xmlns="http://www.w3.org/2000/svg" xmlns:xlink="http://www.w3.org/1999/xlink" version="1.1" id="mdi-gate-xnor" width="24" height="24" viewBox="0 0 24 24"><path d="M2,4C5,10 5,14 2,20H4C7,14 7,10 4.1,4H2M6,4C9,10 9,14 6,20H9C12.2,20 14.8,16.8 16.7,14C17.28,14.65 18.12,15 19,15A3,3 0 0,0 22,12A3,3 0 0,0 19,9C18.12,9 17.28,9.35 16.7,10C14.7,7.2 12.2,4 9,4H6M9,6C12,6 14,10 15.5,12C14,14 12,18 9,18C10.6,14 10.6,10 9,6M19,11C19.5,11 20,11.5 20,12C20,12.5 19.5,13 19,13A1,1 0 0,1 18,12C18,11.5 18.5,11 19,11Z" /></svg>
